shark-fin-outline.svg

<svg fill="currentColor" viewBox="0 0 24 24"><path d="M22 16v2h-2c-1.4 0-2.8-.4-4-1-2.5 1.3-5.5 1.3-8 0-1.2.6-2.6 1-4 1H2v-2h2c1.4 0 2.8-.5 4-1.3 2.4 1.7 5.6 1.7 8 0 1.2.8 2.6 1.3 4 1.3zM5.28 13.79c.54-.16 1.09-.41 1.61-.75L8 12.28c.69-2.28.78-5.01-.41-8.14 4.36.75 8.3 4.51 9.78 9.05.75.45 1.54.72 2.29.78C18.24 7.4 12.37 2 6 2c-.35 0-.67.18-.85.47-.18.3-.2.67-.04.98 2.17 4.34 1.5 7.84.17 10.34M16 18.7c-2.4 1.7-5.6 1.7-8 0-1.2.8-2.6 1.3-4 1.3H2v2h2c1.4 0 2.8-.4 4-1 2.5 1.3 5.5 1.3 8 0 1.2.6 2.6 1 4 1h2v-2h-2c-1.4 0-2.8-.5-4-1.3"/></svg>

<svg  viewBox="0 0 24 24" fill="currentColor"><path  d="M22 16V18H20C18.6 18 17.2 17.6 16 17C13.5 18.3 10.5 18.3 8 17C6.8 17.6 5.4 18 4 18H2V16H4C5.4 16 6.8 15.5 8 14.7C10.4 16.4 13.6 16.4 16 14.7C17.2 15.5 18.6 16 20 16H22M5.28 13.79C5.82 13.63 6.37 13.38 6.89 13.04L8 12.28C8.69 10 8.78 7.27 7.59 4.14C11.95 4.89 15.89 8.65 17.37 13.19C18.12 13.64 18.91 13.91 19.66 13.97C18.24 7.4 12.37 2 6 2C5.65 2 5.33 2.18 5.15 2.47C4.97 2.77 4.95 3.14 5.11 3.45C7.28 7.79 6.61 11.29 5.28 13.79M16 18.7C13.6 20.4 10.4 20.4 8 18.7C6.8 19.5 5.4 20 4 20H2V22H4C5.4 22 6.8 21.6 8 21C10.5 22.3 13.5 22.3 16 21C17.2 21.6 18.6 22 20 22H22V20H20C18.6 20 17.2 19.5 16 18.7Z"/></svg>
